X: 186
T: The Foggy Dew
N:"Moderate" "2nd Setting"
B:O'Neill's 186
Z:Transcribed by henrik.norbeck@mailbox.swipnet.se
M:C
L:1/8
K:G
(EF)|G2 GA B2 gf|e2 dB A2 GA|BABG EGFA|G2 G2 G2||
ef|g2 gf e2 fg|(ag)(fe) d2 (B^d)|e2 ef gfe^d|e4- e2 EF|
G2 GA B2 gf|e2 dB A2 GA|(BA)(BG) (EG)(FA)|G2 G2 G2||


